!!!COM:	Anonymous
!!!OTL:	Las, quel plaisir / Or y vient / La mousque
!!!AGN:	Song; Chanson
!!!SCT:	Ano3025
!!!SCA:	Ano3025
!!!SMS:	Escorial B
!!!folio:	
!!!voices:	3
**kern	**kern	**kern
*staff3	*staff2	*staff1
*Ivox	*Ivox	*Ivox
*I"Tenor	*I"Contratenor	*I"Superius
*I'T	*I'Ct	*I'S
*clefGv2	*clefGv2	*clefG2
*k[]	*k[]	*k[]
*M3/1	*M3/1	*M3/1
*met()	*met()	*met()
!!primary-mensuration: met(O)
=1-	=1-	=1-
!	!	!LO:TX:X=-20:Z=28:t=[No mensuration sign]
1r	1r	1r
1r	1r	1r
2d	1D	2.a
2d	.	.
.	.	4f
=2	=2	=2
2B	1d	1g
2B	.	.
1c	2.e	1a
.	4f	.
1G	1g	2b
.	.	[2dd
=3	=3	=3
2B	2G	4dd]
.	.	4cc
2c	2G	4b
.	.	4a
1d	2G	2g
.	2A	2f#i
1G	1B	1g
=4	=4	=4
2F	2c	2a
2G	2B	1g
2r	2c	.
2d	2A	2f
1c	1G	1e
=5	=5	=5
2G	2.B	2d
2G	.	2e
.	4c	.
2D	1d	2f
2F	.	4e
.	.	4d
1E	1g	2.c#i
.	.	4B
=6	=6	=6
1D	2f	1d
.	4e	.
.	4d	.
2E	1c	1r
2E	.	.
2F	1A	1a
2F	.	.
=7	=7	=7
1G	1d	0b-
2G	2r	.
1G	2d	.
.	2d	2b-i
2F	2d	[2a
=8	=8	=8
1G	2B	4a]
.	.	4g
.	2B	1g
1A	1c	.
.	.	2f#i
1d	1G	[1g
=9	=9	=9
2G	1r	2g]
2G	.	2d
2G	2B	2e
2A	2c	2f
2B-i	2d	1d
2G	2B	.
=10	=10	=10
2F	2A	1a
2F	1d	.
4G	.	1b-i
4G	.	.
2G	2d	.
1D	1d	1a
=11	=11	=11
2B	2G	2d
2c	2G	1g
1d	2G	.
.	2A	2f
1G	2B-i	2d
.	2G	2g
=12	=12	=12
1c	2F	2.a
.	2F	.
.	.	4b
1r	2A	2cc
.	2B	2dd
2.e	2c	2g
.	2c	2a
4f	.	.
=13	=13	=13
1g	2G	2b
.	2G	1g
2e	2G	.
2c	2A	2f#i
2d	2B-i	1g
2e	2G	.
=14	=14	=14
2f	2F	2a
2d	2G	2b
1c	4A	1cc
.	4A	.
.	2A	.
1d	1G	2b
.	.	[2dd
=15	=15	=15
2G	1r	2dd]
2G	.	1g
2G	1g	.
2G	.	2e
2A	2c	2f
2B	2d	2g
=16	=16	=16
1c	2e	1e
.	2g	.
2c	1e	2a
2c	.	1g
2B	2d	.
2G	[2g	2b
=17	=17	=17
1A	4g]	1cc
.	4f#i	.
.	4f#i	.
.	4e	.
1G	1g	1b
1d	2G	1r
.	2G	.
=18	=18	=18
2d	2G	2b
2g	2G	4a
.	.	4b
2f	2A	2cc
2d	2B	4b
.	.	4a
1e	1c	1g
=19	=19	=19
1f	2d	2f
.	2d	2.a
2e	2c	.
.	.	4g
1d	2B	1g
.	1A	.
2c	.	2f#i
=20	=20	=20
1d	1G	1g
2G	1d	2r
2G	.	2d
2G	2B	2e
2A	2c	2f
=21	=21	=21
2B	2d	2d
2G	2B	1e
2F	1A	.
2F	.	1d
4G	1G	.
4G	.	.
2E	.	2c#i
=22	=22	=22
1D	1A	1d
1r	2G	2r
.	2G	2d
1r	2G	2e
.	2A	2f
=23	=23	=23
2.d	2B-i	1g
.	2G	.
4e	.	.
2f	2F	1a
4e	2F	.
4d	.	.
1c	2A	2f
.	2Bni	[2g
=24	=24	=24
1r	2c	2g]
.	2c	2e
2G	1g	2d
2G	.	1e
2G	2g	.
2A	2c	2f
=25	=25	=25
2B-i	2d	1g
2G	2e	.
2F	2f	2a
2G	2d	1g
4A	1c	.
4A	.	.
2A	.	2cc
=26	=26	=26
2G	2d	2b
1c	1e	2.a
.	.	4g
2B	1d	2.g
1A	.	.
.	.	4f#i
.	2c	4f#i
.	.	4e
=27	=27	=27
0.Gl	0.dl	0.gl
==	==	==
*-	*-	*-
!!!RDF**kern: l=long note in original notation
!!!RDF**kern: i=editorial accidental
!!!ENC:	Chris Gage 03-05-2015
!!!END:	2015/03/14/
!!!EED:	Jesse Rodin
!!!EEV:	2016/02/22/
!!!ONB:	Translated from MusicXML and edited on 2016/02/22/ by Craig Sapp
!!muse2ps: C^@{COM}\n@{SMS} @{folio}^v95,95,150Q16
